X: 20291
M: 3/8
L: 1/16
K: F
|:\
|:\
(DF)(BF)(dF) | (DF)(BF)(dF) | {d}e2{d}e2{d}e2 | c3(AGF) |\
(DF)(BF)(dF) | (DF)(BF)(dF) | {d}e2{d}e2 (cA) |[1 B6 :|[2 B4 |]
|: (ag) |\
(fg)(fg)(ab) | f4(df) | {f}e2e2 (cA) | (Bd)F2 (ag) |\
(fg)(fg)(ab) | f4(df) | {f}e2e2 (cA) |[1 B4 :|[2 B3(AB"^D.C."G) |]


